X: 9766
T: Delighted
R: reel
M: 4/4
K: Fmajor
A3 B|:cF F/F/F EFDF|cFFd FFcF|cF F/F/F EFDF|BF F B2 A BA|
cF F/F/F EFDF|cFFd FFcF|fc A f2 c fA|1 BA _E2 F2 AB:|2 BA _E2 F2 =e2||
|:fc c/c/c =Bc_Bc|ac c a3 g2|fc c/c/c =Bc_Bc|AF F/F/F EF_EF|
fc c/c/c =Bc_Bc|ac c a3 g2|fc A f2 c fA|1 BA _E2 F2 =e2:|2 BA _E2 F2 AB||

